!!!COM: Mozart, Wolfgang Amadeus
!!!OTL: String Quartet No. 3 in G Major
!!!OMD: Tempo di Menuetto
!!!OMV: 3
!!!SCT1: K<sup>1</sup> 156
!!!SCA: Chronologisch-thematisches Verzeichnis sämtlicher Tonwerke Wolfgang Amade Mozarts (L. von Köchel; 1862, 2/1905, 3/1937, 1947)
!!!SCT2: K<sup>6</sup> 134b
!!!YOR: Breitkopf & Härtel Edition
!!!ENC: Edmund Correia, Jr.
!!!CDT: 1756/1/27/-1791/12/5/
!!!OCY: Österreich
!!!YEC: Copyright (c) 1994, 2000 Center for Computer Assisted Research in the Humanities
!!!YEM: Rights to all derivative editions reserved.
!!!YEM: Refer to licensing agreement for further details.
!!!YEN: United States of America
**kern	**dynam	**kern	**dynam	**kern	**dynam	**kern	**dynam
*I:Violoncello	*I:Violoncello	*I:Viola	*I:Viola	*I:Violino 2	*I:Violino 2	*I:Violino 1	*I:Violino 1
*>[A,A,B,B,C,C,D,D,E]	*	*>[A,A,B,B,C,C,D,D,E]	*	*>[A,A,B,B,C,C,D,D,E]	*	*>[A,A,B,B,C,C,D,D,E]	*
*>A	*	*>A	*	*>A	*	*>A	*
*clefF4	*	*clefC3	*	*clefG2	*	*clefG2	*
*k[f#]	*	*k[f#]	*	*k[f#]	*	*k[f#]	*
*G:	*	*G:	*	*G:	*	*G:	*
*M3/4	*	*M3/4	*	*M3/4	*	*M3/4	*
! Tempo di Menuetto	!	! Tempo di Menuetto	!	! Tempo di Menuetto	!	! Tempo di Menuetto	!
2.r	.	4g\xx	f	2.r	.	2gg/xx 2b/ 2d/ 2G/	f
.	.	4G/	.	.	.	.	.
.	.	4r	.	.	.	(16ff#\LL	.
.	.	.	.	.	.	16ee\	.
.	.	.	.	.	.	16dd\	.
.	.	.	.	.	.	16cc\JJ)	.
=2	=2	=2	=2	=2	=2	=2	=2
2G\xx	f	4r	.	2.r	.	(4cc\	.
.	.	4b\	.	.	.	4b\)	.
(16F#\LL	.	(16a\LL	.	.	.	4cc'\	.
16E\	.	16g\	.	.	.	.	.
16D\	.	16f#\	.	.	.	.	.
16C\JJ)	.	16e\JJ)	.	.	.	.	.
=3	=3	=3	=3	=3	=3	=3	=3
(4C/	.	4d\	.	2g/xx	f	2dd\	.
4BB/)	.	4r	.	.	.	.	.
4C/	.	4r	.	(16f#/LL	.	(16dd\LL	.
.	.	.	.	16e/	.	16cc\	.
.	.	.	.	16d/	.	16b\	.
.	.	.	.	16c/JJ)	.	16a\JJ)	.
=4	=4	=4	=4	=4	=4	=4	=4
2D\	.	4r	.	(4B/	.	(4g/	.
.	.	4d\	.	4A/)	.	8f#/L)	.
.	.	.	.	.	.	8a'/	p
4r	.	4D/	.	4r	.	8a'/	.
.	.	.	.	.	.	8a'/J	.
=5	=5	=5	=5	=5	=5	=5	=5
2.r	.	4r	.	4r	.	4.a/	.
.	.	(4c\	p	(4e/	p	.	.
.	.	.	.	.	.	(8cc\L	.
.	.	4d\)	.	4f#/)	.	8b\	.
.	.	.	.	.	.	8a\J)	.
=6	=6	=6	=6	=6	=6	=6	=6
2.r	.	2G/	.	(4f#/	.	(4a/	.
.	.	.	.	4g/)	.	8b/L)	.
.	.	.	.	.	.	(8g/	.
.	.	4r	.	4r	.	8d/	.
.	.	.	.	.	.	8B/J)	.
=7	=7	=7	=7	=7	=7	=7	=7
4r	.	4r	.	2.r	.	4.A/	.
(4C/	p	(4E/	.	.	.	.	.
.	.	.	.	.	.	(8c/L	.
4D\)	.	4F#/)	.	.	.	8B/	.
.	.	.	.	.	.	8A/J)	.
=8	=8	=8	=8	=8	=8	=8	=8
4GG/	.	4G/	.	4r	.	4G/	.
4r	.	4r	.	4dd\	f	4bb\	f
4r	.	4r	.	(16cc/LL	.	(16aa\LL	.
.	.	.	.	16b/	.	16gg\	.
.	.	.	.	16a/	.	16ff#\	.
.	.	.	.	16g/JJ)	.	16ee\JJ)	.
=9	=9	=9	=9	=9	=9	=9	=9
*	*	*	*	*^	*	*	*
4r	.	2.r	.	(4f#/	2ryy	.	(4dd\	.
4A\	f	.	.	4e/)	.	.	4cc#\)	.
(16G\LL	.	.	.	4a/	4f#\	.	8.ddT\L	.
16F#\	.	.	.	.	.	.	.	.
16E\	.	.	.	.	.	.	.	.
16D\JJ)	.	.	.	.	.	.	32cc#\LL	.
.	.	.	.	.	.	.	32dd\JJJ	.
=10	=10	=10	=10	=10	=10	=10	=10	=10
4C#/	.	4r	.	4a/	4g\	.	4ee\	.
4AA/	.	4e\	f	8r	2ryy	.	8r	.
.	.	.	.	8a'\L	.	.	8aa'\L	.
4G\	.	(16d/LL	.	8b'\	.	.	8bb'\	.
.	.	16c#/	.	.	.	.	.	.
.	.	16B/	.	8cc#'\J	.	.	8ccc#'\J	.
.	.	16A/JJ)	.	.	.	.	.	.
=11	=11	=11	=11	=11	=11	=11	=11	=11
*	*	*	*	*v	*v	*	*	*
4F#\	.	(8.a\L	.	(8.dd/L	.	(8.ddd\L	.
.	.	16f#\k	.	16a/k	.	16aa\k	.
4r	.	8d\J)	.	8f#/J)	.	8ff#\J)	.
.	.	8d'\L	.	8f#'/L	.	8ff#'\L	.
4r	.	8e'\	.	8g'/	.	8gg'\	.
.	.	8f#'\J	.	8a'/J	.	8aa'\J	.
=12	=12	=12	=12	=12	=12	=12	=12
4G\	.	(8.g\L	.	(8.b/L	.	(8.bb\L	.
.	.	16e\k	.	16g/k	.	16gg\k	.
8r	.	8B\J)	.	8e/J)	.	8ee\J)	.
8G\L	.	8c#'\L	.	8e'/L	.	8ee'\L	.
8F#\	.	8d'\	.	8f#'/	.	8ff#'\	.
8E\J	.	8e'\J	.	8g'/J	.	8gg'\J	.
=13	=13	=13	=13	=13	=13	=13	=13
*	*	*	*	*	*	*^	*
4D\	.	4d\	.	(4a/	.	(4ff#/	4a\	.
4F#\	.	4A/	.	4f#/)	.	4aa/)	4a\	.
4A\	.	4A/	.	(16f#/LL	.	(16aa\LL	4ryy	.
.	.	.	.	16e/	.	16gg\	.	.
.	.	.	.	16d/	.	16ff#\	.	.
.	.	.	.	16c#/JJ)	.	16ee\JJ)	.	.
=14	=14	=14	=14	=14	=14	=14	=14	=14
*	*	*	*	*	*	*v	*v	*
4d\	.	2d\	.	4d/	.	4dd\	.
4D\	.	.	.	4r	.	4r	.
!	!	! 16gP/	!	!	!	!	!
4r	.	8f#p\L	.	4r	.	4r	.
.	.	16e\L	.	.	.	.	.
.	.	16d\JJ	.	.	.	.	.
=15:!!:	=15:!!:	=15:!!:	=15:!!:	=15:!!:	=15:!!:	=15:!!:	=15:!!:
*>B	*	*>B	*	*>B	*	*>B	*
2.r	.	2.ccn\	.	2.r	.	2dd\	.
!	!	!	!	!	!	! 16ggP/	!
.	.	.	.	.	.	8ff#p\L	.
.	.	.	.	.	.	16ee\L	.
.	.	.	.	.	.	16dd\JJ	.
=16	=16	=16	=16	=16	=16	=16	=16
2D\	.	2.a\	.	2.r	.	2.cccn\	.
! 16GP/	!	!	!	!	!	!	!
8F#p\L	.	.	.	.	.	.	.
16E\L	.	.	.	.	.	.	.
16D\JJ	.	.	.	.	.	.	.
=17	=17	=17	=17	=17	=17	=17	=17
2.cn\	.	2.f#\	.	2d/	.	2.aa\	.
!	!	!	!	! 16gP/	!	!	!
.	.	.	.	8f#p/L	.	.	.
.	.	.	.	16e/L	.	.	.
.	.	.	.	16d/JJ	.	.	.
=18	=18	=18	=18	=18	=18	=18	=18
2.A\	.	2d\	.	2.ccn\	.	2.ff#\	.
!	!	! 16gP/	!	!	!	!	!
.	.	8f#p\L	.	.	.	.	.
.	.	16e\L	.	.	.	.	.
.	.	16d\JJ	.	.	.	.	.
=19	=19	=19	=19	=19	=19	=19	=19
4F#'\	.	4cc'\	.	4a'/	.	4dd'\	.
4F#'\	.	4cc'\	.	4a'/	.	4dd'\	.
4F#'\	.	4cc'\	.	4a'/	.	4dd'\	.
=20	=20	=20	=20	=20	=20	=20	=20
4G'\	.	4b'\	.	4g'/	.	4dd'\	.
4r	.	4r	.	4r	.	8r	.
.	.	.	.	.	.	(8dd\L	p
4r	.	4r	.	4r	.	8cc\	.
.	.	.	.	.	.	8b\J)	.
=21	=21	=21	=21	=21	=21	=21	=21
4C/	p	4e\	p	4g/	p	4a/	.
4C/	.	4e\	.	4g/	.	(8.a/L	.
.	.	.	.	.	.	16b/Jk)	.
4C#/	.	4e\	.	4g/	.	(8.a/L	.
.	.	.	.	.	.	16b/Jk)	.
=22	=22	=22	=22	=22	=22	=22	=22
4D\	.	4d\	.	4f#/	.	4a/	.
4r	.	4r	.	4r	.	8r	.
.	.	.	.	.	.	(8d/L	.
4r	.	4r	.	4r	.	8c/	.
.	.	.	.	.	.	8B/J)	.
=23	=23	=23	=23	=23	=23	=23	=23
4C#/	.	(8G/L	.	2.r	.	4A/	.
.	.	8E/)	.	.	.	.	.
4C#/	.	(8G/	.	.	.	(8.A/L	.
.	.	8E/)	.	.	.	.	.
.	.	.	.	.	.	16B/Jk)	.
4C#/	.	(8G/	.	.	.	(8.A/L	.
.	.	8E/J)	.	.	.	.	.
.	.	.	.	.	.	16B/Jk)	.
=24	=24	=24	=24	=24	=24	=24	=24
4D\	.	4F#/	.	2dd/ 2d/	f	4A/	.
4r	.	4r	.	.	.	4r	.
4r	.	4r	.	(16dd\LL	.	4r	.
.	.	.	.	16cc\	.	.	.
.	.	.	.	16b\	.	.	.
.	.	.	.	16a\JJ)	.	.	.
=25	=25	=25	=25	=25	=25	=25	=25
2.r	.	4g\	f	4g/	.	2gg/xx 2b/ 2d/ 2G/	f
.	.	4G/	.	4r	.	.	.
.	.	4r	.	4r	.	(16ff#\LL	.
.	.	.	.	.	.	16ee\	.
.	.	.	.	.	.	16dd\	.
.	.	.	.	.	.	16cc\JJ)	.
=26	=26	=26	=26	=26	=26	=26	=26
2G\	f	4r	.	2.r	.	(4cc\	.
.	.	4b\	.	.	.	4b\)	.
(16F#\LL	.	(16a\LL	.	.	.	4cc'\	.
16E\	.	16g\	.	.	.	.	.
16D\	.	16f#\	.	.	.	.	.
16Cn\JJ)	.	16e\JJ)	.	.	.	.	.
=27	=27	=27	=27	=27	=27	=27	=27
(4C/	.	4d\	.	2g/	.	2dd\	.
4BB/)	.	4r	.	.	.	.	.
4C'/	.	4r	.	(16f#/LL	.	(16dd\LL	.
.	.	.	.	16e/	.	16cc\	.
.	.	.	.	16d/	.	16b\	.
.	.	.	.	16c/JJ)	.	16a\JJ)	.
=28	=28	=28	=28	=28	=28	=28	=28
4D\	.	4r	.	(4B/	.	(4g/	.
4r	.	4d\	.	4A/)	.	8f#/)	.
.	.	.	.	.	.	8a'/L	p
4r	.	4D/	.	4r	.	8a'/	.
.	.	.	.	.	.	8a'/J	.
=29	=29	=29	=29	=29	=29	=29	=29
2.r	.	4r	.	4r	.	4.a/	.
.	.	(4c\	p	(4e/	p	.	.
.	.	.	.	.	.	(8cc\L	.
.	.	4d\)	.	4f#/)	.	8b\	.
.	.	.	.	.	.	8a\J)	.
=30	=30	=30	=30	=30	=30	=30	=30
2.r	.	2G/	.	(4f#/	.	(4a/	.
.	.	.	.	8g/)	.	8b\)	.
.	.	.	.	8r	.	(8g/L	.
.	.	4r	.	4r	.	8d/	.
.	.	.	.	.	.	8B/J)	.
=31	=31	=31	=31	=31	=31	=31	=31
4r	.	4r	.	2.r	.	4.A/	.
(4C/	p	(4E/	.	.	.	.	.
.	.	.	.	.	.	(8c/L	.
4D\)	.	4F#/)	.	.	.	8B/	.
.	.	.	.	.	.	8A/J)	.
=32	=32	=32	=32	=32	=32	=32	=32
4r	.	(4F#/	.	4r	.	(4A/	.
4G\	f	8G/L)	.	8r	.	8B/L)	.
.	.	8B'/	f	8d'/L	f	8dd'/	f
(16F#\LL	.	8c'/	.	8e'/	.	8ee'/	.
16E\	.	.	.	.	.	.	.
16D\	.	8A'/J	.	8f#'/J	.	8ff#'/J	.
16C\JJ)	.	.	.	.	.	.	.
=33	=33	=33	=33	=33	=33	=33	=33
4BB/	.	(8.d/L	.	(8.g/L	.	(8.gg\L	.
.	.	16B/k	.	16d/k	.	16dd\k	.
4r	.	8G/J)	.	8B/J)	.	8b\J)	.
.	.	8G'/L	.	8B'/L	.	8b'\L	.
4r	.	8A'/	.	8c'/	.	8cc'\	.
.	.	8B'/J	.	8d'/J	.	8dd'\J	.
=34	=34	=34	=34	=34	=34	=34	=34
4C/	.	(8.c/L	.	(8.e/L	.	(8.ee\L	.
.	.	16A/k	.	16c/k	.	16cc\k	.
8r	.	8F#/J)	.	8A/J)	.	8a\J)	.
8C/L	.	8F#'/L	.	8A'/L	.	8a'\L	.
8BB/	.	8G'/	.	8B'/	.	8b'\	.
8AA/J	.	8A'/J	.	8c'/J	.	8cc'\J	.
=35	=35	=35	=35	=35	=35	=35	=35
4GG/	.	(4B/	.	(4d/	.	(4b/ 4d/	.
4BB/	.	4d\)	.	4g/)	.	4dd\)	.
4D\	.	4d'\	.	(16b/LL	.	(16dd\LL	.
.	.	.	.	16a/	.	16cc\	.
.	.	.	.	16g/	.	16b\	.
.	.	.	.	16f#/JJ)	.	16a\JJ)	.
=36	=36	=36	=36	=36	=36	=36	=36
4G\	.	2d\ 2B\	.	2g/ 2G/	.	2g/ 2G/	.
4GG/	.	.	.	.	.	.	.
4r;	.	4r;	.	4r;	.	4r;	.
=37:!!:	=37:!!:	=37:!!:	=37:!!:	=37:!!:	=37:!!:	=37:!!:	=37:!!:
*>C	*	*>C	*	*>C	*	*>C	*
*k[b-e-]	*	*k[b-e-]	*	*k[b-e-]	*	*k[b-e-]	*
*g:	*	*g:	*	*g:	*	*g:	*
4GG/xx	p	8g\L	p	2.r	.	4r	.
.	.	8a\	.	.	.	.	.
4r	.	8b-\	.	.	.	8dd\	p
.	.	8a\	.	.	.	8r	.
4r	.	8b-\	.	.	.	8gg\	.
.	.	8g\J	.	.	.	8r	.
=38	=38	=38	=38	=38	=38	=38	=38
8D\L	p	4a\	.	4r	.	4ff#\	.
8En\	.	.	.	.	.	.	.
8F#\	.	4r	.	8a/	p	4r	.
8E\	.	.	.	8r	.	.	.
8F#\	.	4r	.	8dd\	.	4r	.
8D\J	.	.	.	8r	.	.	.
=39	=39	=39	=39	=39	=39	=39	=39
4G\	.	8g\L	.	4b-\	.	4r	.
.	.	8a\	.	.	.	.	.
4r	.	8b-\	.	4r	.	8dd\	.
.	.	8a\	.	.	.	8r	.
4r	.	8b-\	.	4r	.	8gg\	.
.	.	8g\J	.	.	.	8r	.
=40	=40	=40	=40	=40	=40	=40	=40
8D\L	.	4a\	.	4r	.	4ff#\	.
8En\	.	.	.	.	.	.	.
8F#\	.	4r	.	8a/	.	4r	.
8E\	.	.	.	8r	.	.	.
8F#\	.	4r	.	8dd\	.	4r	.
8D\J	.	.	.	8r	.	.	.
=41	=41	=41	=41	=41	=41	=41	=41
4G\	.	8g\L	.	8b-\	.	4r	.
.	.	8f\	.	8r	.	.	.
4r	.	8en\	.	8g/	.	8bb-\	.
.	.	8f\	.	8r	.	8r	.
4r	.	8e\	.	4r	.	8gg\	.
.	.	8d\J	.	.	.	8r	.
=42	=42	=42	=42	=42	=42	=42	=42
8A\L	.	4c#\	.	8en/	.	4r	.
8B-\	.	.	.	8r	.	.	.
8A\	.	4r	.	8c#/	.	8een\	.
8G#\	.	.	.	8r	.	8r	.
8A\	.	4r	.	4r	.	8cc#\	.
8Gn\J	.	.	.	.	.	8r	.
=43	=43	=43	=43	=43	=43	=43	=43
4Fn\	.	8f\L	.	8a/	.	4r	.
.	.	8en\	.	8r	.	.	.
4r	.	8d\	.	8f/	.	8dd\	.
.	.	8cn\	.	8r	.	8r	.
4r	.	8B-\	.	8d/	.	8ff\	.
.	.	8A\J	.	8r	.	8r	.
=44	=44	=44	=44	=44	=44	=44	=44
8G\L	.	4G/	.	8b-\	.	4r	.
8F\	.	.	.	8r	.	.	.
8En\	.	4r	.	8g/	.	8een\	.
8D\	.	.	.	8r	.	8r	.
8C#\	.	4r	.	8en/	.	8gg\	.
8AA\J	.	.	.	8r	.	8r	.
=45	=45	=45	=45	=45	=45	=45	=45
8D\L	.	4a\	.	(4d/	.	(4ff\	.
8A\	.	.	.	.	.	.	.
8F\	.	4a\	.	4f/)	.	4aa\)	.
8D\	.	.	.	.	.	.	.
8A\	.	4g\	.	4en'/	.	4cc#'\	.
8AA\J	.	.	.	.	.	.	.
=46	=46	=46	=46	=46	=46	=46	=46
8D/L	.	4fn\	.	4d/	.	4dd\	.
8E-/	.	.	.	.	.	.	.
8D/	.	4r	.	4r	.	4r	.
8Cn/	.	.	.	.	.	.	.
8BB-/	.	4r	.	4r	.	4r	.
8AA/J	.	.	.	.	.	.	.
=47:!!:	=47:!!:	=47:!!:	=47:!!:	=47:!!:	=47:!!:	=47:!!:	=47:!!:
*>D	*	*>D	*	*>D	*	*>D	*
4GG/	.	4r	.	2.r	.	8gg\L	.
.	.	.	.	.	.	8dd\	.
4r	.	8g\	.	.	.	8bn\	.
.	.	8r	.	.	.	8g\	.
4r	.	8bn\	.	.	.	8gg\	.
.	.	8r	.	.	.	8ff\J	.
=48	=48	=48	=48	=48	=48	=48	=48
4r	.	4cc\	.	8cc/L	.	4eenx\	.
.	.	.	.	8g/	.	.	.
8C/	.	4r	.	8enx/	.	4r	.
8r	.	.	.	8cx/	.	.	.
8En\	.	4r	.	8ccx/	.	4r	.
8r	.	.	.	8b-x/J	.	.	.
=49	=49	=49	=49	=49	=49	=49	=49
4F\	.	4r	.	4ax/	.	8ffx\L	.
.	.	.	.	.	.	8ccx\	.
4r	.	8f\	.	4r	.	8ax\	.
.	.	8r	.	.	.	8fx\	.
4r	.	8a\	.	4r	.	8ffx\	.
.	.	8r	.	.	.	8ee-\J	.
=50	=50	=50	=50	=50	=50	=50	=50
4r	.	4b-\	.	8b-x/L	.	4dd\	.
.	.	.	.	8fx/	.	.	.
8BB-/	.	4r	.	8dx/	.	4r	.
8r	.	.	.	8B-x/	.	.	.
8D\	.	4r	.	8b-x/	.	4r	.
8r	.	.	.	8ax/J	.	.	.
=51	=51	=51	=51	=51	=51	=51	=51
4E-\	.	4r	.	4gx/	.	8ee-/L	.
.	.	.	.	.	.	8b-/	.
4r	.	4B-/	.	4r	.	8g/	.
.	.	.	.	.	.	8e-/	.
(4G\	.	(4B-/	.	(4g/	.	8ee-/	.
.	.	.	.	.	.	8dd/J	.
=52	=52	=52	=52	=52	=52	=52	=52
4A\)	.	4c\)	.	4f#/)	.	8cc/L	.
.	.	.	.	.	.	8a/	.
4r	.	4r	.	4r	.	8f#/	.
.	.	.	.	.	.	8d/	.
(4F#\	.	4d\	.	4a/	.	8dd/	.
.	.	.	.	.	.	8cc/J	.
=53	=53	=53	=53	=53	=53	=53	=53
4G\	.	(4G/	.	(2d/	.	8b-\L	.
.	.	.	.	.	.	8dd\	.
4Fn\	.	4A/	.	.	.	8a\	.
.	.	.	.	.	.	8dd\	.
4E-\)	.	4B-/)	.	4g/)	.	8cc#\	.
.	.	.	.	.	.	8gg\J	.
=54	=54	=54	=54	=54	=54	=54	=54
8D\L	.	4d\	.	4a/	.	4ff#\	.
8A\	.	.	.	.	.	.	.
8d\	.	4r	.	4r	.	4r	.
8c\	.	.	.	.	.	.	.
8B-\	.	4r	.	4r	.	4r	.
8A\J	.	.	.	.	.	.	.
=55	=55	=55	=55	=55	=55	=55	=55
4G\	.	8b-\L	.	8dd\	.	4r	.
.	.	8a\	.	8r	.	.	.
4r	.	8g\	.	8b-\	.	8gg\	.
.	.	8f\	.	8r	.	8r	.
4r	.	8e-\	.	8g/	.	8bb-\	.
.	.	8d\J	.	8r	.	8r	.
=56	=56	=56	=56	=56	=56	=56	=56
8c\L	.	4c\	.	8ee-\	.	4r	.
8B-\	.	.	.	8r	.	.	.
8A\	.	4r	.	8cc\	.	8aa\	.
8G\	.	.	.	8r	.	8r	.
8F#\	.	4r	.	8a/	.	8ccc\	.
8D\J	.	.	.	8r	.	8r	.
=57	=57	=57	=57	=57	=57	=57	=57
8G\L	.	4d\	.	(4g/	.	(4bb-\	.
8d\	.	.	.	.	.	.	.
8B-\	.	4d\	.	4b-\)	.	4ddd\)	.
8G\J	.	.	.	.	.	.	.
4D'\	f	4a'\	f	4cc'\	f	4ff#'\	f
=58	=58	=58	=58	=58	=58	=58	=58
4E-'\	.	4g'\	.	4b-'\	.	4gg'\	.
4r	.	4r	.	4r	.	4r	.
4r	.	4r	.	4r	.	4r	.
=59	=59	=59	=59	=59	=59	=59	=59
8F#\	p	8a\	p	8cc\	p	8ee-\	p
8r	.	8r	.	8r	.	8r	.
8G\	.	8d\	.	8b-\	.	8dd\	.
8r	.	8r	.	8r	.	8r	.
4r	.	4r	.	4r	.	4r	.
=60	=60	=60	=60	=60	=60	=60	=60
8D\	.	8f#\	.	8a/	.	8cc\	.
8r	.	8r	.	8r	.	8r	.
8E-\	.	8g\	.	8g/	.	8b-\	.
8r	.	8r	.	8r	.	8r	.
4r	.	4r	.	4r	.	4r	.
=61	=61	=61	=61	=61	=61	=61	=61
8C/	.	8c\	.	8e-/	.	8a/	.
8r	.	8r	.	8r	.	8r	.
8D\	.	8B-/	.	8d/	.	8g/	.
8r	.	8r	.	8r	.	8r	.
8D\	.	8A/	.	8c/	.	8f#/	.
8r	.	8r	.	8r	.	8r	.
=62	=62	=62	=62	=62	=62	=62	=62
4GG/	.	4G/	.	4B-/	.	4g/	.
4r	.	4r	.	4r	.	4r	.
4r	.	4r	.	4r	.	4r	.
! Menuetto da capo senza Ritornello.	!	! Menuetto da capo senza Ritornello.	!	! Menuetto da capo senza Ritornello.	!	! Menuetto da capo senza Ritornello.	!
==:|!	==:|!	==:|!	==:|!	==:|!	==:|!	==:|!	==:|!
*	*	*	*	*-	*-	*-	*-
*>E	*	*>E	*
*-	*-	*-	*-
!!!RWG: Appoggiaturas of spine 'Violino 1' need manual editing in measures: 15
!!!RWG: Appoggiaturas of spine 'Violino 2' need manual editing in measures: 17
!!!RWG: Appoggiaturas of spine 'Viola' need manual editing in measures: 14, 18
!!!RWG: Appoggiaturas of spine 'Violoncello' need manual editing in measures: 16
!!!RWG: Key is interpreted using the Humdrum key tool.
!!!AFT: stage2
!!!END: 1994/02/15
!!!KEY: 2190037121
!!!EMD: Converted from MuseData to Humdrum Dec 16, 2000, by Andreas Kornstaedt using muse2kern.
!!!EMD: Manual editing by Craig Sapp, Nov 2001
